X:42
%%titlespace -25
%%musicspace -20
T: Tam Lin
M:4/4
L:1/8
K:Am
D2| "Am"E2AE cEAE| "F"F2AF cFAF| "G"G2BG dGBG| "C"cBAG "Em"AGED|
"Am"E2AE cEAE| "F"F2AF cFAF| "G"G2BG dGBG| "Em"cBAG "Am"A2:|
|: g2| "Am"aeed cAce| "Am"aeed cBA2| "G"gddd Bddd| "G"gddd gabg|
"Am"aeed cAce| "Am"aeed cBA2| "F"F3G AGAB| "G"cABG "Am"A2:|

